22x22/actions/list-remove-user.svg

<svg xmlns="http://www.w3.org/2000/svg" viewBox="0 0 22 22">
  <defs id="defs3051">
    <style type="text/css" id="current-color-scheme">
      .ColorScheme-Text {
        color:#5d656b;
      }
      </style>
  </defs>
 <path 
     style="fill:currentColor;fill-opacity:1;stroke:none" 
     d="M 11 3 C 9.338 3 8 4.338 8 6 C 8 7.662 9.338 9 11 9 C 12.662 9 14 7.662 14 6 C 14 4.338 12.662 3 11 3 z M 11 11 C 8.23 11 6 11.89198 6 13 L 6 18 L 6 19 L 7.2011719 19 L 13 19 L 13 18 L 7 18 L 7 13.427734 C 7 12.636304 8.784 12 11 12 C 12.795116 12 14.289377 12.420682 14.798828 13 L 16 13 C 16 11.89198 13.77 11 11 11 z "
     class="ColorScheme-Text"
     />
    <path
       style="fill:#da4453;fill-opacity:1;stroke:none"
       d="M 14 16 L 14 17 L 19 17 L 19 16 L 14 16 z "
        />
</svg>

<svg xmlns="http://www.w3.org/2000/svg" viewBox="0 0 22 22"><path style="fill:currentColor;fill-opacity:1;stroke:none;color:#5d656b" d="M11 3C9.338 3 8 4.338 8 6s1.338 3 3 3 3-1.338 3-3-1.338-3-3-3zm0 8c-2.77 0-5 .892-5 2v6h7v-1H7v-4.572C7 12.636 8.784 12 11 12c1.795 0 3.29.42 3.799 1H16c0-1.108-2.23-2-5-2z"/><path style="fill:#da4453;fill-opacity:1;stroke:none" d="M14 16v1h5v-1h-5z"/></svg>
